X: 23
T: Lily Queen, Ragtime Two-Step
C: Scott Joplin
%%abc-version 2.0
%%abcx-abcm2ps-target-version 5.9.1 (29 Sep 2008)
%%abc-creator hum2abc beta
%%abcx-conversion-date 2021/07/20 09:00:57
%%abc-copyright 2021 Craig Stuart Sapp
%%abc-edited-by Craig Stuart Sapp
%%abc-edited-by Craig Stuart Sapp
%%abcx-initial-encoding-date 2005/04/08
%%humdrum-veritas 696180945
%%humdrum-veritas-data 3656488798
%%removed 0's from note length
%%linebreak <none>
%%barnumbers 0
L: 1/8
M: 2/4
N: Derived from lilyqueen.krn
Q: "Moderato." 1/4=100
%%staves {1 2}
V: 1 clef=treble
V: 2 clef=bass
K: C
[V:1] G/e/c/G/- G/E/C | 
[V:2] G,/E/C/G,/- G,/E,/C, | 
[V:1] F/c/D/F/ E/c3/ & FDE2 | 
[V:2] A,_A,G,2 | 
[V:1] ^F> cx2 & [c/C/][d/D/][^d/^D/][^f/^F/] [g/B/G/][eBG][=d/B/=F/] | 
[V:2] [A,2A,,2][G,2G,,2] | 
[V:1] [cGE] z [c'ec][ec_B] ]|:  
[V:2] [CC,] z [C,C,,][CC,] ]|:  
[V:1] [f2c2A2][c'2f2c2] | 
[V:2] [F,F,,][FCA,] [A,A,,][_A,_A,,] | 
[V:1] [g2e2c2G2][a2c2A2] | 
[V:2] [G,G,,][ECG,] [EE,][_E_E,] | 
[V:1] ^f/[gdB]f/ [gdB]f/[g/e/c/]- | 
[V:2] [DD,][FB,G,] [G,G,,][FB,G,] | 
[V:1] [gec][g/e/c/]^f/ [g/e/c/]f/[gc] | 
[V:2] [CC,][C,C,,] [D,D,,][E,E,,] | 
[V:1] [a2=f2c2][c'2f2c2] | 
[V:2] [F,F,,][FCA,] [A,A,,][_A,_A,,] | 
[V:1] [g2e2c2G2][e2^A2G2] | 
[V:2] [G,G,,][ECG,][^C,2^C,,2] | 
[V:1] [d2B2G2][b2g2d2] | 
[V:2] [D,D,,][DB,G,] [G,G,,][DB,G,] | 
[V:1] a/^g/a/b/x2 & [^f2c2][=gdB][ec_B] | 
[V:2] [D,D,,][DC^F,] [G,G,,][CC,] | 
[V:1] [f2c2A2][c'2f2c2] | 
[V:2] [F,F,,][FCA,] [A,A,,][_A,_A,,] | 
[V:1] [g2e2c2G2][a2c2A2] | 
[V:2] [G,G,,][ECG,] [EE,][_E_E,] | 
[V:1] ^f/[gdB]f/ [gdB]f/[g/e/c/]- | 
[V:2] [DD,][FB,G,] [G,G,,][FB,G,] | 
[V:1] x2gd/e/ & [gec][g/e/c/]^f/ [ec][^GE] | 
[V:2] [EE,][DD,] [CC,][B,B,,] | 
[V:1] [c2A2E2][c2F2C2] | 
[V:2] [A,2A,,2][_A,2_A,,2] | 
[V:1] [c2E2C2][A2^D2C2] |[1 
[V:2] [G,2G,,2][^F,2^F,,2] | 
[V:1] [G2E2C2][e3/c3/G3/][c/^F/]- | 
[V:2] [G,G,,]G, [CC,][ECG,] | 
[V:1] c/e/d [cGE][ec_B] & F[B=F]x2 :|][2 
[V:2] [A,A,,][G,G,,] [CC,][C,C,,] :|]  
[V:1] [G2E2C2][e3/c3/G3/][c/^F/]- | 
[V:2] [G,G,,]G, [CC,][ECG,] | 
[V:1] c/e/dx2 & F[B=F] [cGE][g/G/][a/A/] ]|: 
[V:2] [A,A,,][G,G,,] [CC,] z ]|:  
[V:1] f/ba/ e/ag/ & B2^A2 | 
[V:2] [DD,][FB,G,] [^C^C,][E^A,G,] | 
[V:1] [g/B/]G/A/B/- B/c/d/^d/ | 
[V:2] [DD,][FB,G,] [G,G,,][FB,G,] | 
[V:1] e/G/A/B/ c/[b^f^dc][a/f/d/c/] | 
[V:2] [CC,][ECG,] [E,E,,][^D,^D,,] | 
[V:1] [g2e2c2]z/ [gcG][c'/g/c/] | 
[V:2] [E,E,,][ECG,] [EE,][_E_E,] | 
[V:1] [BF][_BF][AF][_AF] | 
[V:2] [D2D,2][C2C,2] | 
[V:1] [G4F4] | 
[V:2] [B,B,,][F,F,,] [E,E,,][D,D,,] | 
[V:1] [G2G,2][G2G,2] & z [EC] z [E^A,] | 
[V:2] [C,2C,,2][^C,2^C,,2] | 
[V:1] [G3G,3][gG] & z [F/B,/][F/B,/] [FB,] z | 
[V:2] [D,2D,,2]G,,2 | 
[V:1] f/ba/ e/=ag/ & B2^A2 | 
[V:2] [DD,][FB,G,] [^C^C,][E^A,G,] | 
[V:1] [g/B/]G/A/B/- B/c/d/^d/ | 
[V:2] [DD,][FB,G,] [G,G,,][FB,G,] | 
[V:1] e/G/A/B/ c/ag/ | 
[V:2] [CC,][ECG,] [_B,_B,,][ECG,] | 
[V:1] c2-c/A/c/f/ | 
[V:2] [A,A,,][FCA,][FCA,] z | 
[V:1] [a2f2c2][f2c2] | 
[V:2] [F,F,,][FCA,] [_A,_A,,][FCA,] | 
[V:1] x2z/ fe/ & [e2c2G2]z/ [^c3/G3/] |[1 
[V:2] [G,G,,][ECG,] [A,A,,][^CA,G,] | 
[V:1] =cA c/[dB]c/- & ^F2=F/FE/- | 
[V:2] [D,D,,][CA,^F,] [G,G,,][B,G,=F,] | 
[V:1] [cE][g/G/][g/G/] [gG][aA] :|][2 
[V:2] [CC,] zz2 :|]  
[V:1] =cA c/dc/- & ^F2=F/[BF]E/- | 
[V:2] [D,D,,][CA,^F,] [G,G,,][B,G,=F,] | 
[V:1] [c3E3][ec_B] || 
[V:2] [CC,][G,G,,][C,C,,][CC,] ||  
[V:1] [f2c2A2][c'2f2c2] | 
[V:2] [F,F,,][FCA,] [A,A,,][_A,_A,,] | 
[V:1] [g2e2c2G2][a2c2A2] | 
[V:2] [G,G,,][ECG,] [EE,][_E_E,] | 
[V:1] ^f/[gdB]f/ [g/d/B/]f[g/e/c/]- | 
[V:2] [DD,][FB,G,] [G,G,,][FB,G,] | 
[V:1] [gec][g/e/c/]^f/ [g/e/c/]f/[gc] | 
[V:2] [CC,][C,C,,] [D,D,,][E,E,,] | 
[V:1] [a2=f2c2][c'2f2c2] | 
[V:2] [F,F,,][FCA,] [A,A,,][_A,_A,,] | 
[V:1] [g2e2c2G2][e2^A2G2] | 
[V:2] [G,G,,][ECG,][^C,2^C,,2] | 
[V:1] [d2B2G2][b2g2d2] | 
[V:2] [D,D,,][DB,G,] [G,G,,][DB,G,] | 
[V:1] a/^g/a/b/x2 & [^f2c2][=gdB][ec_B] | 
[V:2] [D,D,,][DC^F,] [G,G,,][CC,] | 
[V:1] [f2c2A2][c'2f2c2] | 
[V:2] [F,F,,][FCA,] [A,A,,][_A,_A,,] | 
[V:1] [g2e2c2G2][a2c2A2] | 
[V:2] [G,G,,][ECG,] [EE,][_E_E,] | 
[V:1] ^f/[gdB][f/d/B/] [gdB]f/[g/e/c/]- | 
[V:2] [DD,][FB,G,] [G,G,,][FB,G,] | 
[V:1] x2gd/e/ & [gec][g/e/c/]^f/ [ec][^GE] | 
[V:2] [EE,][DD,] [CC,][B,B,,] | 
[V:1] [c2A2E2][c2F2C2] | 
[V:2] [A,2A,,2][_A,2_A,,2] | 
[V:1] [c2E2C2][A2^D2C2] | 
[V:2] [G,2G,,2][^F,2^F,,2] | 
[V:1] [G2E2C2][e3/c3/G3/][c/^F/]- | 
[V:2] [G,G,,]G, [CC,][ECG,] | 
[V:1] c/e/d [cE] z & F[B=F]x2 ]|:  
[V:2] [A,A,,][G,G,,] [CC,] z ]|:  
[V:1]  [K:F] aa/^g/ aa/_a/ & [f2c2]^d2 | 
[V:2]  [K:F] [F,F,,][FCA,] [^F,^F,,][^DCA,] | 
[V:1] g<c' z/ c/d/e/ & e2z/ c/B | 
[V:2] [G,G,,][ECB,] [C,C,,][ECB,] | 
[V:1] [fA]c=B_B | 
[V:2] [F,F,,]_ED_D | 
[V:1] A^G=G!accent![cBE] | 
[V:2] C=B,_B,!accent![C,C,,] | 
[V:1] aa/^g/ aa/=b/ & [f2c2]^d2 | 
[V:2] [F,F,,][FCA,] [^F,^F,,][^DCA,] | 
[V:1] c'<g z e/f/ & e2z c | 
[V:2] [G,G,,][ECG,][E2C2G,2] | 
[V:1] g<a [e/=B/G/][dBF][c/G/E/]- & c2x2 | 
[V:2] [E,E,,][ECG,] [G,G,,][=B,G,] | 
[V:1] [c4G4E4] | 
[V:2] [CC,][_B,_B,,][A,A,,][G,G,,] | 
[V:1] aa/^g/ aa/_a/ & [f2c2]^d2 | 
[V:2] [F,F,,][FCA,] [^F,^F,,][^DCA,] | 
[V:1] g<c' z/ c/d/e/ & e2z/ c/d/e/ | 
[V:2] [G,G,,][ECB,] [C,C,,][ECB,G,] | 
[V:1] x2g/af/- & [f2_e2]e3/d/- | 
[V:2] [F,F,,][_ECA,F,] [A,A,,][ECA,F,] | 
[V:1] f4 & d4 | 
[V:2] [B,B,,][F,F,,] [E,E,,][_E,_E,,] | 
[V:1] [a2^f2c2][d2c2] | 
[V:2] [D,D,,][DC^F,] [DD,][CC,] | 
[V:1] g/a/b/g/ ag & d2[dB][fB] |[1 
[V:2] [B,B,,][DB,G,] [D,D,,][_D,_D,,] | 
[V:1] [a2f2c2][a/e/c/][geB][f/c/A/]- | 
[V:2] [C,C,,][FCA,] [C,C,,][ECB,] | 
[V:1] x c/c/ g^g & [fcA]c/c/[e2c2] :|][2 
[V:2] [F,F,,] z[B,2C,2] :|]  
[V:1] [a2f2c2][a/e/c/][geB][f/c/A/]- | 
[V:2] [C,C,,][FCA,] [C,C,,][ECB,] | 
[V:1] [f2c2A2][b2g2c2] ]|: 
[V:2] [F,F,,][C,C,,][D,D,,][E,E,,] ]|:  
[V:1] {/g^g} a/d'/[c'a] {/=g^g} a/d'/[c'/a/][c'/a/f/]- | 
[V:2] [F,F,,][FCA,] [C,C,,][FCA,] | 
[V:1] [c'2a2f2][c'2a2_e2] | 
[V:2] [F,F,,][F,F,,] [G,G,,][A,A,,] | 
[V:1] {/c^c} d/g/[fd] {/=c^c} d/g/[f/d/][f/=c/]- | 
[V:2] [B,B,,][FDB,] [G,G,,][^G,^G,,] | 
[V:1] [f2c2][b2g2c2] | 
[V:2] [A,A,,][C,C,,] [D,D,,][E,E,,] | 
[V:1] {/g^g} a/d'/[c'a] {/=g^g} a/d'/[c'/a/][c'/a/f/]- | 
[V:2] [F,F,,][FCA,] [C,C,,][FCA,] | 
[V:1] [c'2a2f2]-[c'/a/f/][c'c][d'/d/] | 
[V:2] [F,F,,][FCA,] [A,A,,][F,F,,] | 
[V:1] e'/c'/a/c'/-x2 & [ae]>[^gd]- [c'gd][=bgd] | 
[V:2] [E,E,,][ECA,] [E,E,,][ED^G,] | 
[V:1] [aec][a^dc][_b2e2c2] | 
[V:2] [A,A,,][^F,^F,,] [G,G,,][C,C,,] | 
[V:1] {/g^g} a/d'/[c'a] {/=g^g} a/d'/[c'/a/][c'/a/f/]- | 
[V:2] [F,F,,][FCA,] [C,C,,][FCA,] | 
[V:1] [c'2a2f2][c'2a2_e2] | 
[V:2] [F,F,,][F,F,,] [G,G,,][A,A,,] | 
[V:1] {/=c^c} d/g/[fd] {/=c^c} d/g/[f/d/][f/=c/]- | 
[V:2] [B,B,,][FDB,] [G,G,,][^G,^G,,] | 
[V:1] [f2c2]-[f/c/][c'c][^c'/^c/] | 
[V:2] [A,A,,][FCA,] [A,A,,][G,G,,] | 
[V:1] [d'ad][c'ac]- [c'ac][a^fd] | 
[V:2] [^F,^F,,][DCF,] [DD,][CC,] | 
[V:1] g/a/b/g/x2 & d2[adB][gfB] |[1 
[V:2] [B,B,,][DB,G,] [D,D,,][_D,_D,,] | 
[V:1] [a2f2c2][a/e/c/][geB][f/c/A/]- | 
[V:2] [C,C,,][FCA,] [C,C,,][ECB,] | 
[V:1] [f2c2A2][b2g2c2] :|][2 
[V:2] [F,F,,][C,C,,][D,D,,][E,E,,] :|]  
[V:1] [a2f2c2][a/e/c/][geB][f/c/A/]- | 
[V:2] [C,C,,][FCA,] [C,C,,][ECB,] | 
[V:1] [f2c2A2][f'c'af] z |]  
[V:2] [F,F,,]C,F,, z |]  


